X:958
T:Rodney's glory
T:Praises of Limerick
R:Set Dance
O:Ireland
B:O'Neill's 27
B:O'Neill's 1784
S:O'Neill's 1784
Z:Transcription:Robert Thorpe, chords:Mike Long
M:C|
L:1/8
K:G
(ed)|\
"Am"c2(Bc) ABcA|"G"BGEF G2(cd)|"C"e=fed "Am"cde^f|"G"({a}gf)ge "Dm"d=fed|\
"Am"c2(Bc) ABcA|
"G"BGEF "(Em)"G2(ed)|"Am"c2(BA) "G"GABG|"Am"A4 A2:|\
|:d2|\
"Am"eaab aged|e=fed c3A|
"G"g2fg "Em"agec|"G"dcAF G2G2|\
"Am"AGAB "C"cBcd|"Am"edeg a2ab|\
"Am"aged "C"cdef|
"G"gfge d=fed|"Am"(3(cdc) "(G)"(3(BcB) "Am"ABcA|\
"G"BGEF "Em"G2(ed)|"Am"c2(BA) "G"GABG|"Am"A4 A2:|
